X: 641
T: Wiggen
B: good tune book
B: tunes
M:2/4
R: polka
Q: 1/4=100
K:Dmajor
V:1 
B/A/|FA dF|A3 B/A/|GB dG|B3 c/B/|
 Ac e3/2f/|gf e3/2d/|1 cA BA|F3 B/A/:|2 cA Bc|d3 B/A/||
 |:F/A/d/A/ F/A/d/A/|F/A/d/A/ F/A/d/A/|G/B/d/B/ G/B/d/B/|G/B/d/B/ G/B/d/B/|
 A/c/e/c/ A/c/e/c/|A/c/e/c/ A/c/e/c/|1 A3/2A/ BA|F3 B/A/:|2 A3/2A/ Bc|d2 de||
 |:f3/2f/ ff|fe dc|B3/2B/ BB|B z "^Hoy
"z2|
 A/c/e/c/ A/c/e/c/|A/c/e/c/ A/c/e/c/|1 A3/2A/ BA|F2 de:|2 A3/2A/ Bc|d3||
% abcbook-tune_id 63dce928f6d94d51dd8bd26b
% abcbook-tune_composer_id 
% abcbook-link-0 https://www.youtube.com/watch?v=Etxxrls4wJg
% abcbook-boost 0
% abcbook-difficulty 0
% abcbook-tags good tune book
% abcbook-tablature 
% abcbook-transpose 
% abcbook-tuning 
% abcbook-lastupdated 1675482230133
% abcbook-soundfonts 
% abcbook-repeats 1


